X:104
T:Larry Redican's Slip Jig
T:Let's Dance
R:slip jig
C:Larry Redican (1908-1975)
H:Originally in F and with parts swapped
D:Jimmy Keane
Z:id:hn-slipjig-104
M:9/8
L:1/8
K:G
~G3 Bdd cee | ~G3 BdB cAF | ~G3 DGG DGF |1 ~E3 AGF G3 :|2 ~E3 AGF GFG ||
|: AGE EDB, DEG | dBA ABd edg | dBA AGE EDB, |1 DB,A, A,B,D EDB :|2 DB,A, A,B,D E3 ||

